X: 2012
T: Honest Duncan, a Strathspey
R: strathspey
B: Niel Gow & Sons "Complete Repository" v.2 p.1 #2
Z: 2021 John Chambers <jc:trillian.mit.edu>
M: C
L: 1/16
Q: "SLOWISH"
K: Bb	% and Gm
% - - - - - - - - - -
% Voice 1 formatted for compactness and proofreading.
V: 1 staves=2
dc |\
B2.B,2.B,2 DE {DE}F2B,2B,2 dc | B2.B,2.B,2 DE {DE}F4 F2Fd |\
B2B,2B,2B2 FB,3F3D | (.C2.C2) TE3F {EF}G4 G2dc |
B2.B,2.B,2 DE (FE)DC B,2dc | B2.B,2.B,2 DE ~F4 F2dc |\
B3FB2d2 B3F GF.E.D | (.C2.C2) E3F {EF}G4G2 |]
dc |\
.B3f (ed)(cB) F2B2D2B2 | B,3f (ed)(cB) g4- Tg2ab |\
TB3cB2f2 {e}d3c B2B,2 | (.C2.C2) TE3F {F}G4 G2dc |
B3f (ed)(cB) F2B2D2B2 | B,3f (ed)(cB) {EB}g6 ab |\
(f2.b2) (d2.f2) (B2.d2) (D2B2) | (.C2.C2) TE3F G4 G2 |]
% - - - - - - - - - -
% Voice 2 preserves the book's staff layout.
V: 2 clef=bass middle=d
z2 |\
B4B2z2 B4B2z2 | B4B2z2 d4B4 | B4B4 B4B4 | A4 c2d2 e4 E4 | D4B2z2 B2B2 B4 |
B4B2z2 d2f2B4 | B4B4 B4B4 | A4B4 e4e2 |] z2 | b4b4 b4b4 | d4B4 e4e4 | d4B4 B4B4 |
A4B2d2 e4e2z2 | b4b4 b4b4 | d4B4 e4e4 | d4B4 B4B4 | A4B4 E4e2 |]


